packages/tokens/icons/fileMove/size24Px.svg

<svg viewBox="0 0 24 24" fill="none" xmlns="http://www.w3.org/2000/svg" width="1em" height="1em"><path d="M15.5 2.90385V5.53846C15.5 6.09075 15.9477 6.53846 16.5 6.53846L18.875 6.53846M4.5 8.25L4.5 4.5C4.5 3.39543 5.39543 2.5 6.5 2.5L14.6716 2.5C15.202 2.5 15.7107 2.71071 16.0858 3.08579L18.9142 5.91421C19.2893 6.28929 19.5 6.79799 19.5 7.32843L19.5 19.5C19.5 20.6046 18.6046 21.5 17.5 21.5L6.5 21.5C5.39543 21.5 4.5 20.6046 4.5 19.5L4.5 15.75" stroke="currentColor" stroke-linecap="round"/><path d="M2.5 12L14.5 12" stroke="currentColor" stroke-linecap="round" stroke-linejoin="round"/><path d="M12.5 9.5L15 12L12.5 14.5" stroke="currentColor" stroke-linecap="round" stroke-linejoin="round"/></svg>

<svg xmlns="http://www.w3.org/2000/svg" fill="none" viewBox="0 0 24 24" width="1em" height="1em"><path stroke="currentColor" stroke-linecap="round" d="M15.5 2.904v2.634a1 1 0 0 0 1 1h2.375M4.5 8.25V4.5a2 2 0 0 1 2-2h8.172a2 2 0 0 1 1.414.586l2.828 2.828a2 2 0 0 1 .586 1.414V19.5a2 2 0 0 1-2 2h-11a2 2 0 0 1-2-2v-3.75"/><path stroke="currentColor" stroke-linecap="round" stroke-linejoin="round" d="M2.5 12h12m-2-2.5L15 12l-2.5 2.5"/></svg>
